source/img/icon/icon-advantages-2.svg

<svg width="86" height="84" viewBox="0 0 86 84" fill="none" xmlns="http://www.w3.org/2000/svg">
<path opacity="0.8" d="M63.8694 33.2781L67.0944 30.1137L63.0526 26.1659L59.813 29.3159C57.9975 28.078 55.9294 27.2371 53.75 26.8523V22.4H48.0166V26.8523C45.8373 27.2371 43.7691 28.078 41.9537 29.3159L38.714 26.1659L34.6722 30.1137L37.8972 33.2781C36.6298 35.0513 35.7689 37.0713 35.3749 39.2H30.8167V44.8H35.3749C35.7689 46.9287 36.6298 48.9488 37.8972 50.722L34.6722 53.8864L38.714 57.8341L41.9537 54.6841C43.7691 55.9221 45.8373 56.7629 48.0166 57.1478V61.6H53.75V57.1478C55.9294 56.7629 57.9975 55.9221 59.813 54.6841L63.0526 57.8341L67.0944 53.8864L63.8694 50.722C65.1369 48.9488 65.9977 46.9287 66.3917 44.8H70.95V39.2H66.3917C65.9977 37.0713 65.1369 35.0513 63.8694 33.2781ZM50.8833 49C46.9256 49 43.7166 45.8657 43.7166 42C43.7166 38.1343 46.9256 35 50.8833 35C54.8411 35 58.05 38.1343 58.05 42C58.05 45.8657 54.8411 49 50.8833 49Z" fill="#27ACE2"/>
<path opacity="0.8" d="M20.7834 1.40002H55.1834C58.3496 1.40002 60.9167 3.90745 60.9167 7.00002V12.6H15.05V7.00002C15.05 3.90745 17.6172 1.40002 20.7834 1.40002Z" fill="#27ACE2"/>
<path opacity="0.8" d="M15.05 68.6H60.9167V77C60.9167 80.0926 58.3496 82.6 55.1834 82.6H20.7834C17.6172 82.6 15.05 80.0926 15.05 77V68.6Z" fill="#27ACE2"/>
<path d="M59.4834 67.2H22.2167V70H59.4834V77C59.4834 79.3194 57.558 81.2 55.1834 81.2H20.7834C18.4087 81.2 16.4834 79.3194 16.4834 77V14H53.75V11.2H16.4834V7C16.4834 4.68057 18.4087 2.8 20.7834 2.8H55.1834C57.558 2.8 59.4834 4.68057 59.4834 7V21H62.35V7C62.3451 3.13564 59.1397 0.00478517 55.1834 0H20.7834C16.827 0.00478517 13.6216 3.13564 13.6167 7V77C13.6216 80.8644 16.827 83.9952 20.7834 84H55.1834C59.1397 83.9952 62.3451 80.8644 62.35 77V61.6H59.4834V67.2Z" fill="#0060AA"/>
<path d="M36.55 74.2H39.4167V77H36.55V74.2Z" fill="#0060AA"/>
<path d="M26.5166 5.59998H29.3833V8.39998H26.5166V5.59998Z" fill="#0060AA"/>
<path d="M32.25 5.59998H35.1167V8.39998H32.25V5.59998Z" fill="#0060AA"/>
<path d="M19.3501 18.2V23.8H22.2168V19.6H26.5168V16.8H20.7834C19.9919 16.8 19.3501 17.4268 19.3501 18.2Z" fill="#0060AA"/>
<path d="M70.95 37.8H67.5458C67.1476 36.2763 66.5261 34.8168 65.6995 33.4667L68.1106 31.1008C68.6684 30.5546 68.6684 29.6707 68.1106 29.1245L64.0688 25.1761C63.5089 24.6312 62.604 24.6312 62.0448 25.1761L59.6268 27.5283C58.2424 26.7203 56.7461 26.1133 55.1833 25.725V22.4C55.1833 21.6269 54.5415 21 53.75 21H48.0166C47.2251 21 46.5833 21.6269 46.5833 22.4V25.725C45.0233 26.114 43.5291 26.721 42.1468 27.5283L39.7246 25.1733C39.1654 24.6285 38.2604 24.6285 37.7013 25.1733L33.6588 29.1211C33.101 29.668 33.101 30.5519 33.6588 31.098L36.0699 33.464C35.2426 34.8147 34.6197 36.2749 34.2208 37.8H30.8166C30.0251 37.8 29.3833 38.4269 29.3833 39.2V44.8C29.3833 45.5731 30.0251 46.2 30.8166 46.2H34.2208C34.6183 47.7265 35.2398 49.188 36.0671 50.5401L33.656 52.9061C33.0982 53.4522 33.0982 54.3361 33.656 54.883L37.6978 58.8308C38.2576 59.3756 39.1626 59.3756 39.7218 58.8308L42.144 56.4758C43.527 57.2817 45.0226 57.8881 46.5833 58.275V61.6C46.5833 62.3731 47.2251 63 48.0166 63H53.75C54.5415 63 55.1833 62.3731 55.1833 61.6V58.275C56.7461 57.8867 58.2424 57.2797 59.6268 56.4717L62.049 58.8267C62.6082 59.3715 63.5131 59.3715 64.073 58.8267L68.1148 54.8789C68.6726 54.332 68.6726 53.4481 68.1148 52.902L65.6995 50.5401C66.5268 49.188 67.1483 47.7265 67.5458 46.2H70.95C71.7415 46.2 72.3833 45.5731 72.3833 44.8V39.2C72.3833 38.4269 71.7415 37.8 70.95 37.8ZM69.5166 43.4H66.3917C65.6988 43.4 65.1046 43.8847 64.9815 44.5505C64.6245 46.4823 63.8421 48.315 62.688 49.9229C62.2926 50.4786 62.3605 51.2312 62.8504 51.7104L65.0732 53.8843L63.0505 55.8599L60.8249 53.697C60.3343 53.2191 59.5638 53.1521 58.9948 53.5391C57.3487 54.6656 55.4723 55.4299 53.4945 55.7785C52.8156 55.8988 52.3208 56.4744 52.3166 57.1478V60.2H49.45V57.1478C49.45 56.471 48.9538 55.8906 48.2721 55.7703C46.2943 55.4217 44.4179 54.6574 42.7718 53.5302C42.2028 53.1439 41.4323 53.2103 40.9416 53.6888L38.7161 55.8599L36.6934 53.8843L38.9078 51.7104C39.397 51.2312 39.4656 50.4786 39.0695 49.9229C37.9161 48.315 37.1337 46.4823 36.7767 44.5505C36.6535 43.8874 36.0643 43.4041 35.3749 43.4H32.25V40.6H35.3749C36.0678 40.6 36.6619 40.1153 36.7851 39.4495C37.1421 37.5177 37.9245 35.685 39.0786 34.0771C39.474 33.5214 39.4061 32.7688 38.9162 32.2896L36.6934 30.1157L38.7161 28.1401L40.9416 30.303C41.4323 30.7809 42.2028 30.8479 42.7718 30.4609C44.4179 29.3344 46.2943 28.5701 48.2721 28.2215C48.951 28.1012 49.4458 27.5256 49.45 26.8522V23.8H52.3166V26.8522C52.3166 27.529 52.8128 28.1094 53.4945 28.2297C55.4723 28.5783 57.3487 29.3426 58.9948 30.4698C59.5638 30.8561 60.3343 30.7897 60.8249 30.3112L63.0505 28.1401L65.0732 30.1157L62.8588 32.2896C62.3696 32.7688 62.301 33.5214 62.6971 34.0771C63.8505 35.685 64.6329 37.5177 64.9899 39.4495C65.113 40.1126 65.7023 40.5959 66.3917 40.6H69.5166V43.4Z" fill="#0060AA"/>
<path d="M50.7042 33.25C45.9549 33.25 42.1042 37.0111 42.1042 41.65C42.1042 46.2889 45.9549 50.05 50.7042 50.05C55.4536 50.05 59.3042 46.2889 59.3042 41.65C59.2993 37.0125 55.4522 33.2548 50.7042 33.25ZM50.7042 47.25C47.538 47.25 44.9709 44.7426 44.9709 41.65C44.9709 38.5574 47.538 36.05 50.7042 36.05C53.8705 36.05 56.4376 38.5574 56.4376 41.65C56.4376 44.7426 53.8705 47.25 50.7042 47.25Z" fill="#0060AA"/>
</svg>

<svg width="86" height="84" fill="none" xmlns="http://www.w3.org/2000/svg"><path opacity=".8" d="M63.87 33.278l3.224-3.164-4.041-3.948-3.24 3.15a15.569 15.569 0 0 0-6.063-2.464V22.4h-5.733v4.452a15.569 15.569 0 0 0-6.063 2.464l-3.24-3.15-4.042 3.948 3.225 3.164a14.824 14.824 0 0 0-2.522 5.922h-4.558v5.6h4.558a14.824 14.824 0 0 0 2.522 5.922l-3.225 3.164 4.042 3.948 3.24-3.15a15.569 15.569 0 0 0 6.063 2.464V61.6h5.733v-4.452a15.57 15.57 0 0 0 6.063-2.464l3.24 3.15 4.041-3.948-3.225-3.164a14.823 14.823 0 0 0 2.523-5.922h4.558v-5.6h-4.558a14.823 14.823 0 0 0-2.523-5.922zM50.882 49c-3.957 0-7.166-3.134-7.166-7s3.209-7 7.166-7c3.958 0 7.167 3.134 7.167 7s-3.209 7-7.167 7zM20.783 1.4h34.4c3.167 0 5.734 2.507 5.734 5.6v5.6H15.05V7c0-3.093 2.567-5.6 5.733-5.6zM15.05 68.6h45.867V77c0 3.093-2.567 5.6-5.734 5.6h-34.4c-3.166 0-5.733-2.507-5.733-5.6v-8.4z" fill="#27ACE2"/><path d="M59.483 67.2H22.217V70h37.266v7c0 2.32-1.925 4.2-4.3 4.2h-34.4c-2.374 0-4.3-1.88-4.3-4.2V14H53.75v-2.8H16.483V7c0-2.32 1.926-4.2 4.3-4.2h34.4c2.375 0 4.3 1.88 4.3 4.2v14h2.867V7c-.005-3.864-3.21-6.995-7.167-7h-34.4c-3.956.005-7.161 3.136-7.166 7v70c.005 3.864 3.21 6.995 7.166 7h34.4c3.957-.005 7.162-3.136 7.167-7V61.6h-2.867v5.6z" fill="#0060AA"/><path d="M36.55 74.2h2.867V77H36.55v-2.8zM26.517 5.6h2.866v2.8h-2.866V5.6zm5.733 0h2.867v2.8H32.25V5.6zm-12.9 12.6v5.6h2.867v-4.2h4.3v-2.8h-5.734c-.791 0-1.433.627-1.433 1.4zm51.6 19.6h-3.404a16.088 16.088 0 0 0-1.847-4.333l2.412-2.366a1.376 1.376 0 0 0 0-1.976l-4.042-3.949a1.457 1.457 0 0 0-2.024 0l-2.418 2.352a16.897 16.897 0 0 0-4.444-1.803V22.4c0-.773-.642-1.4-1.433-1.4h-5.733c-.792 0-1.434.627-1.434 1.4v3.325a16.91 16.91 0 0 0-4.436 1.803l-2.422-2.355a1.457 1.457 0 0 0-2.024 0l-4.042 3.948a1.377 1.377 0 0 0 0 1.977l2.41 2.366a16.102 16.102 0 0 0-1.848 4.336h-3.404c-.792 0-1.434.627-1.434 1.4v5.6c0 .773.642 1.4 1.434 1.4h3.404a16.076 16.076 0 0 0 1.846 4.34l-2.411 2.366a1.377 1.377 0 0 0 0 1.977l4.042 3.948c.56.545 1.465.545 2.024 0l2.422-2.355a16.892 16.892 0 0 0 4.44 1.799V61.6c0 .773.641 1.4 1.433 1.4h5.733c.791 0 1.433-.627 1.433-1.4v-3.325a16.897 16.897 0 0 0 4.444-1.803l2.422 2.355a1.46 1.46 0 0 0 2.024 0l4.042-3.948a1.377 1.377 0 0 0 0-1.977L65.7 50.54a16.076 16.076 0 0 0 1.846-4.34h3.404c.791 0 1.433-.627 1.433-1.4v-5.6c0-.773-.641-1.4-1.433-1.4zm-1.433 5.6h-3.125c-.693 0-1.287.485-1.41 1.15a13.383 13.383 0 0 1-2.294 5.373 1.375 1.375 0 0 0 .162 1.787l2.223 2.174-2.022 1.976-2.226-2.163a1.458 1.458 0 0 0-1.83-.158 14.062 14.062 0 0 1-5.5 2.24 1.41 1.41 0 0 0-1.178 1.369V60.2H49.45v-3.052a1.41 1.41 0 0 0-1.178-1.378 14.053 14.053 0 0 1-5.5-2.24 1.458 1.458 0 0 0-1.83.159l-2.226 2.17-2.023-1.975 2.215-2.174a1.373 1.373 0 0 0 .161-1.787 13.392 13.392 0 0 1-2.292-5.373 1.425 1.425 0 0 0-1.402-1.15H32.25v-2.8h3.125c.693 0 1.287-.485 1.41-1.15a13.383 13.383 0 0 1 2.294-5.373 1.375 1.375 0 0 0-.163-1.787l-2.223-2.174 2.023-1.976 2.226 2.163c.49.478 1.26.545 1.83.158a14.062 14.062 0 0 1 5.5-2.24 1.41 1.41 0 0 0 1.178-1.369V23.8h2.867v3.052a1.41 1.41 0 0 0 1.178 1.378 14.053 14.053 0 0 1 5.5 2.24c.569.386 1.34.32 1.83-.159l2.225-2.17 2.023 1.975-2.214 2.174a1.375 1.375 0 0 0-.162 1.787 13.392 13.392 0 0 1 2.293 5.373 1.425 1.425 0 0 0 1.402 1.15h3.125v2.8z" fill="#0060AA"/><path d="M50.704 33.25c-4.75 0-8.6 3.761-8.6 8.4s3.85 8.4 8.6 8.4 8.6-3.761 8.6-8.4c-.005-4.637-3.852-8.395-8.6-8.4zm0 14c-3.166 0-5.733-2.507-5.733-5.6 0-3.093 2.567-5.6 5.733-5.6 3.166 0 5.734 2.507 5.734 5.6 0 3.093-2.568 5.6-5.734 5.6z" fill="#0060AA"/></svg>
